images/64737.svg

<?xml version="1.0" encoding="UTF-8"?>
<svg xmlns="http://www.w3.org/2000/svg" xmlns:xlink="http://www.w3.org/1999/xlink" width="300pt" height="300pt" viewBox="0 0 300 300" version="1.1">
<defs>
<g>
<symbol overflow="visible" id="glyph0-0">
<path style="stroke:none;" d="M 0.75 2.65625 L 0.75 -10.578125 L 8.25 -10.578125 L 8.25 2.65625 Z M 1.59375 1.8125 L 7.40625 1.8125 L 7.40625 -9.734375 L 1.59375 -9.734375 Z M 1.59375 1.8125 "/>
</symbol>
<symbol overflow="visible" id="glyph0-1">
<path style="stroke:none;" d="M 1.46875 -10.9375 L 3.46875 -10.9375 L 8.3125 -1.78125 L 8.3125 -10.9375 L 9.75 -10.9375 L 9.75 0 L 7.75 0 L 2.90625 -9.140625 L 2.90625 0 L 1.46875 0 Z M 1.46875 -10.9375 "/>
</symbol>
<symbol overflow="visible" id="glyph0-2">
<path style="stroke:none;" d="M 5.90625 -9.9375 C 4.832031 -9.9375 3.976562 -9.535156 3.34375 -8.734375 C 2.71875 -7.929688 2.40625 -6.835938 2.40625 -5.453125 C 2.40625 -4.078125 2.71875 -2.988281 3.34375 -2.1875 C 3.976562 -1.382812 4.832031 -0.984375 5.90625 -0.984375 C 6.976562 -0.984375 7.828125 -1.382812 8.453125 -2.1875 C 9.085938 -2.988281 9.40625 -4.078125 9.40625 -5.453125 C 9.40625 -6.835938 9.085938 -7.929688 8.453125 -8.734375 C 7.828125 -9.535156 6.976562 -9.9375 5.90625 -9.9375 Z M 5.90625 -11.140625 C 7.4375 -11.140625 8.660156 -10.625 9.578125 -9.59375 C 10.503906 -8.5625 10.96875 -7.179688 10.96875 -5.453125 C 10.96875 -3.734375 10.503906 -2.359375 9.578125 -1.328125 C 8.660156 -0.296875 7.4375 0.21875 5.90625 0.21875 C 4.375 0.21875 3.144531 -0.289062 2.21875 -1.3125 C 1.300781 -2.34375 0.84375 -3.722656 0.84375 -5.453125 C 0.84375 -7.179688 1.300781 -8.5625 2.21875 -9.59375 C 3.144531 -10.625 4.375 -11.140625 5.90625 -11.140625 Z M 5.90625 -11.140625 "/>
</symbol>
<symbol overflow="visible" id="glyph0-3">
<path style="stroke:none;" d="M 1.46875 -10.9375 L 2.953125 -10.9375 L 2.953125 -6.453125 L 8.328125 -6.453125 L 8.328125 -10.9375 L 9.8125 -10.9375 L 9.8125 0 L 8.328125 0 L 8.328125 -5.203125 L 2.953125 -5.203125 L 2.953125 0 L 1.46875 0 Z M 1.46875 -10.9375 "/>
</symbol>
<symbol overflow="visible" id="glyph0-4">
<path style="stroke:none;" d="M 9.65625 -10.09375 L 9.65625 -8.53125 C 9.15625 -9 8.625 -9.347656 8.0625 -9.578125 C 7.5 -9.804688 6.898438 -9.921875 6.265625 -9.921875 C 5.015625 -9.921875 4.054688 -9.535156 3.390625 -8.765625 C 2.734375 -8.003906 2.40625 -6.898438 2.40625 -5.453125 C 2.40625 -4.015625 2.734375 -2.910156 3.390625 -2.140625 C 4.054688 -1.378906 5.015625 -1 6.265625 -1 C 6.898438 -1 7.5 -1.113281 8.0625 -1.34375 C 8.625 -1.570312 9.15625 -1.921875 9.65625 -2.390625 L 9.65625 -0.84375 C 9.144531 -0.488281 8.597656 -0.222656 8.015625 -0.046875 C 7.441406 0.128906 6.832031 0.21875 6.1875 0.21875 C 4.53125 0.21875 3.222656 -0.285156 2.265625 -1.296875 C 1.316406 -2.316406 0.84375 -3.703125 0.84375 -5.453125 C 0.84375 -7.210938 1.316406 -8.597656 2.265625 -9.609375 C 3.222656 -10.628906 4.53125 -11.140625 6.1875 -11.140625 C 6.832031 -11.140625 7.445312 -11.050781 8.03125 -10.875 C 8.613281 -10.695312 9.15625 -10.4375 9.65625 -10.09375 Z M 9.65625 -10.09375 "/>
</symbol>
<symbol overflow="visible" id="glyph0-5">
<path style="stroke:none;" d="M 1.40625 -11.390625 L 2.765625 -11.390625 L 2.765625 0 L 1.40625 0 Z M 1.40625 -11.390625 "/>
</symbol>
</g>
</defs>
<g id="surface47793">
<rect x="0" y="0" width="300" height="300" style="fill:rgb(100%,100%,100%);fill-opacity:1;stroke:none;"/>
<path style="fill:none;stroke-width:1.2;stroke-linecap:butt;stroke-linejoin:miter;stroke:rgb(0%,0%,0%);stroke-opacity:1;stroke-miterlimit:10;" d="M 80.851562 255.105469 L 100.164062 225.210938 "/>
<path style="fill:none;stroke-width:1.2;stroke-linecap:butt;stroke-linejoin:miter;stroke:rgb(0%,0%,0%);stroke-opacity:1;stroke-miterlimit:10;" d="M 100.164062 225.210938 L 83.9375 193.539062 "/>
<path style="fill:none;stroke-width:1.2;stroke-linecap:butt;stroke-linejoin:miter;stroke:rgb(0%,0%,0%);stroke-opacity:1;stroke-miterlimit:10;" d="M 83.9375 193.539062 L 103.253906 163.644531 "/>
<path style="fill:none;stroke-width:1.2;stroke-linecap:butt;stroke-linejoin:miter;stroke:rgb(0%,0%,0%);stroke-opacity:1;stroke-miterlimit:10;" d="M 103.253906 163.644531 L 95.136719 147.808594 "/>
<path style="fill:none;stroke-width:1.2;stroke-linecap:butt;stroke-linejoin:miter;stroke:rgb(0%,0%,100%);stroke-opacity:1;stroke-miterlimit:10;" d="M 95.136719 147.808594 L 87.023438 131.972656 "/>
<path style="fill:none;stroke-width:1.2;stroke-linecap:butt;stroke-linejoin:miter;stroke:rgb(0%,0%,100%);stroke-opacity:1;stroke-miterlimit:10;" d="M 87.023438 131.972656 L 69.25 131.082031 "/>
<path style="fill:none;stroke-width:1.2;stroke-linecap:butt;stroke-linejoin:miter;stroke:rgb(0%,0%,0%);stroke-opacity:1;stroke-miterlimit:10;" d="M 69.25 131.082031 L 51.480469 130.1875 "/>
<path style="fill:none;stroke-width:1.2;stroke-linecap:butt;stroke-linejoin:miter;stroke:rgb(0%,0%,0%);stroke-opacity:1;stroke-miterlimit:10;" d="M 106.339844 102.078125 L 96.683594 117.027344 "/>
<path style="fill:none;stroke-width:1.2;stroke-linecap:butt;stroke-linejoin:miter;stroke:rgb(0%,0%,100%);stroke-opacity:1;stroke-miterlimit:10;" d="M 96.683594 117.027344 L 87.023438 131.972656 "/>
<path style=" stroke:none;fill-rule:nonzero;fill:rgb(100%,100%,100%);fill-opacity:1;" d="M 82.023438 122.972656 L 93.023438 122.972656 L 93.023438 140.972656 L 82.023438 140.972656 Z M 82.023438 122.972656 "/>
<g style="fill:rgb(0%,0%,100%);fill-opacity:1;">
  <use xlink:href="#glyph0-1" x="82.023438" y="136.586914"/>
</g>
<path style="fill:none;stroke-width:1.2;stroke-linecap:butt;stroke-linejoin:miter;stroke:rgb(0%,0%,0%);stroke-opacity:1;stroke-miterlimit:10;" d="M 51.480469 130.1875 L 35.25 98.515625 "/>
<path style="fill:none;stroke-width:1.2;stroke-linecap:butt;stroke-linejoin:miter;stroke:rgb(0%,0%,0%);stroke-opacity:1;stroke-miterlimit:10;" d="M 35.25 98.515625 L 54.566406 68.621094 "/>
<path style="fill:none;stroke-width:1.2;stroke-linecap:butt;stroke-linejoin:miter;stroke:rgb(0%,0%,0%);stroke-opacity:1;stroke-miterlimit:10;" d="M 54.566406 68.621094 L 90.113281 70.40625 "/>
<path style="fill:none;stroke-width:1.2;stroke-linecap:butt;stroke-linejoin:miter;stroke:rgb(0%,0%,0%);stroke-opacity:1;stroke-miterlimit:10;" d="M 90.113281 70.40625 L 106.339844 102.078125 "/>
<path style="fill:none;stroke-width:1.2;stroke-linecap:butt;stroke-linejoin:miter;stroke:rgb(0%,0%,0%);stroke-opacity:1;stroke-miterlimit:10;" d="M 106.339844 102.078125 L 141.886719 103.863281 "/>
<path style="fill:none;stroke-width:1.2;stroke-linecap:butt;stroke-linejoin:miter;stroke:rgb(0%,0%,0%);stroke-opacity:1;stroke-miterlimit:10;" d="M 145.402344 106.132812 L 155.058594 91.1875 "/>
<path style="fill:none;stroke-width:1.2;stroke-linecap:butt;stroke-linejoin:miter;stroke:rgb(100%,0%,0%);stroke-opacity:1;stroke-miterlimit:10;" d="M 155.058594 91.1875 L 164.71875 76.242188 "/>
<path style="fill:none;stroke-width:1.2;stroke-linecap:butt;stroke-linejoin:miter;stroke:rgb(0%,0%,0%);stroke-opacity:1;stroke-miterlimit:10;" d="M 138.367188 101.589844 L 148.027344 86.644531 "/>
<path style="fill:none;stroke-width:1.2;stroke-linecap:butt;stroke-linejoin:miter;stroke:rgb(100%,0%,0%);stroke-opacity:1;stroke-miterlimit:10;" d="M 148.027344 86.644531 L 157.683594 71.699219 "/>
<path style="fill:none;stroke-width:1.2;stroke-linecap:butt;stroke-linejoin:miter;stroke:rgb(0%,0%,0%);stroke-opacity:1;stroke-miterlimit:10;" d="M 141.886719 103.863281 L 150 119.699219 "/>
<path style="fill:none;stroke-width:1.2;stroke-linecap:butt;stroke-linejoin:miter;stroke:rgb(0%,0%,100%);stroke-opacity:1;stroke-miterlimit:10;" d="M 150 119.699219 L 158.113281 135.535156 "/>
<path style=" stroke:none;fill-rule:nonzero;fill:rgb(100%,100%,100%);fill-opacity:1;" d="M 155.203125 64.96875 L 167.203125 64.96875 L 167.203125 82.96875 L 155.203125 82.96875 Z M 155.203125 64.96875 "/>
<g style="fill:rgb(100%,0%,0%);fill-opacity:1;">
  <use xlink:href="#glyph0-2" x="155.203125" y="78.583008"/>
</g>
<path style="fill:none;stroke-width:1.2;stroke-linecap:butt;stroke-linejoin:miter;stroke:rgb(0%,0%,100%);stroke-opacity:1;stroke-miterlimit:10;" d="M 158.113281 135.535156 L 175.886719 136.425781 "/>
<path style="fill:none;stroke-width:1.2;stroke-linecap:butt;stroke-linejoin:miter;stroke:rgb(0%,0%,0%);stroke-opacity:1;stroke-miterlimit:10;" d="M 175.886719 136.425781 L 193.660156 137.320312 "/>
<path style=" stroke:none;fill-rule:nonzero;fill:rgb(100%,100%,100%);fill-opacity:1;" d="M 147.113281 126.535156 L 170.113281 126.535156 L 170.113281 144.535156 L 147.113281 144.535156 Z M 147.113281 126.535156 "/>
<g style="fill:rgb(0%,0%,100%);fill-opacity:1;">
  <use xlink:href="#glyph0-1" x="147.113281" y="140.149414"/>
  <use xlink:href="#glyph0-3" x="158.088867" y="140.149414"/>
</g>
<path style="fill:none;stroke-width:1.2;stroke-linecap:butt;stroke-linejoin:miter;stroke:rgb(0%,0%,0%);stroke-opacity:1;stroke-miterlimit:10;" d="M 193.660156 137.320312 L 209.886719 168.992188 "/>
<path style="fill:none;stroke-width:1.2;stroke-linecap:butt;stroke-linejoin:miter;stroke:rgb(0%,0%,0%);stroke-opacity:1;stroke-miterlimit:10;" d="M 202.734375 136.667969 L 215.71875 162.007812 "/>
<path style="fill:none;stroke-width:1.2;stroke-linecap:butt;stroke-linejoin:miter;stroke:rgb(0%,0%,0%);stroke-opacity:1;stroke-miterlimit:10;" d="M 212.976562 107.425781 L 193.660156 137.320312 "/>
<path style="fill:none;stroke-width:1.2;stroke-linecap:butt;stroke-linejoin:miter;stroke:rgb(0%,0%,0%);stroke-opacity:1;stroke-miterlimit:10;" d="M 209.886719 168.992188 L 245.433594 170.773438 "/>
<path style="fill:none;stroke-width:1.2;stroke-linecap:butt;stroke-linejoin:miter;stroke:rgb(0%,0%,0%);stroke-opacity:1;stroke-miterlimit:10;" d="M 209.886719 168.992188 L 190.574219 198.882812 "/>
<path style="fill:none;stroke-width:1.2;stroke-linecap:butt;stroke-linejoin:miter;stroke:rgb(0%,0%,0%);stroke-opacity:1;stroke-miterlimit:10;" d="M 245.433594 170.773438 L 264.75 140.882812 "/>
<path style="fill:none;stroke-width:1.2;stroke-linecap:butt;stroke-linejoin:miter;stroke:rgb(0%,0%,0%);stroke-opacity:1;stroke-miterlimit:10;" d="M 240.332031 163.242188 L 255.785156 139.328125 "/>
<path style="fill:none;stroke-width:1.2;stroke-linecap:butt;stroke-linejoin:miter;stroke:rgb(0%,0%,0%);stroke-opacity:1;stroke-miterlimit:10;" d="M 264.75 140.882812 L 248.519531 109.210938 "/>
<path style="fill:none;stroke-width:1.2;stroke-linecap:butt;stroke-linejoin:miter;stroke:rgb(0%,0%,0%);stroke-opacity:1;stroke-miterlimit:10;" d="M 248.519531 109.210938 L 212.976562 107.425781 "/>
<path style="fill:none;stroke-width:1.2;stroke-linecap:butt;stroke-linejoin:miter;stroke:rgb(0%,0%,0%);stroke-opacity:1;stroke-miterlimit:10;" d="M 244.546875 117.394531 L 216.109375 115.96875 "/>
<path style="fill:none;stroke-width:1.2;stroke-linecap:butt;stroke-linejoin:miter;stroke:rgb(0%,0%,0%);stroke-opacity:1;stroke-miterlimit:10;" d="M 212.976562 107.425781 L 196.746094 75.753906 "/>
<path style=" stroke:none;fill-rule:nonzero;fill:rgb(100%,100%,100%);fill-opacity:1;" d="M 130.652344 35.894531 L 156.652344 35.894531 L 156.652344 53.894531 L 130.652344 53.894531 Z M 130.652344 35.894531 "/>
<g style="fill:rgb(0%,80%,0%);fill-opacity:1;">
  <use xlink:href="#glyph0-4" x="130.652344" y="49.508789"/>
  <use xlink:href="#glyph0-5" x="140.896484" y="49.508789"/>
  <use xlink:href="#glyph0-3" x="144.972656" y="49.508789"/>
</g>
</g>
</svg>

<svg xmlns="http://www.w3.org/2000/svg" xmlns:xlink="http://www.w3.org/1999/xlink" width="300pt" height="300pt" viewBox="0 0 300 300"><defs><symbol overflow="visible"><path d="M.75 2.656v-13.234h7.5V2.656zm.844-.844h5.812V-9.733H1.594zm0 0"/></symbol><symbol overflow="visible" id="a"><path d="M1.47-10.938h2L8.31-1.78v-9.158H9.75V0h-2L2.906-9.14V0H1.47zm0 0"/></symbol><symbol overflow="visible" id="b"><path d="M5.906-9.938c-1.074 0-1.93.403-2.562 1.204-.625.804-.938 1.898-.938 3.28 0 1.376.313 2.466.938 3.266.633.805 1.488 1.204 2.562 1.204 1.07 0 1.922-.4 2.547-1.204.633-.8.953-1.89.953-3.265 0-1.383-.32-2.477-.953-3.28-.625-.802-1.476-1.204-2.547-1.204zm0-1.203c1.532 0 2.754.515 3.672 1.546.926 1.03 1.39 2.414 1.39 4.14 0 1.72-.464 3.095-1.39 4.126C8.66-.298 7.438.22 5.906.22c-1.53 0-2.76-.51-3.687-1.532C1.3-2.345.843-3.723.843-5.452c0-1.728.457-3.11 1.375-4.142.925-1.03 2.155-1.547 3.686-1.547zm0 0"/></symbol><symbol overflow="visible" id="c"><path d="M1.47-10.938h1.483v4.485h5.375v-4.484h1.485V0H8.328v-5.203H2.953V0H1.47zm0 0"/></symbol><symbol overflow="visible" id="d"><path d="M9.656-10.094v1.563c-.5-.47-1.03-.818-1.594-1.048-.562-.227-1.164-.344-1.796-.344-1.25 0-2.21.387-2.875 1.156-.656.762-.984 1.868-.984 3.313 0 1.437.328 2.543.985 3.312C4.056-1.38 5.017-1 6.267-1c.632 0 1.234-.113 1.796-.344.563-.226 1.094-.578 1.594-1.047v1.546c-.51.356-1.058.62-1.64.797C7.44.13 6.832.22 6.187.22c-1.656 0-2.964-.505-3.92-1.517C1.316-2.317.843-3.703.843-5.453c0-1.758.472-3.145 1.422-4.156.957-1.02 2.265-1.53 3.921-1.53.645 0 1.258.09 1.844.265.583.18 1.126.438 1.626.78zm0 0"/></symbol><symbol overflow="visible" id="e"><path d="M1.406-11.39h1.36V0h-1.36zm0 0"/></symbol></defs><g><path fill="#fff" d="M0 0h300v300H0z"/><path d="M80.852 255.105l19.312-29.894M100.164 225.21l-16.227-31.67M83.938 193.54l19.316-29.895M103.254 163.645l-8.117-15.836" stroke-width="1.2" stroke="#000" stroke-miterlimit="10" fill="none"/><path d="M95.137 147.81l-8.114-15.837M87.023 131.973l-17.773-.89" stroke-width="1.2" stroke="#00f" stroke-miterlimit="10" fill="none"/><path d="M69.25 131.082l-17.77-.894M106.34 102.078l-9.656 14.95" stroke-width="1.2" stroke="#000" stroke-miterlimit="10" fill="none"/><path d="M96.684 117.027l-9.66 14.946" stroke-width="1.2" stroke="#00f" stroke-miterlimit="10" fill="none"/><path d="M82.023 122.973h11v18h-11zm0 0" fill="#fff"/><use xlink:href="#a" x="82.023" y="136.587" fill="#00f"/><path d="M51.48 130.188L35.25 98.516M35.25 98.516L54.566 68.62M54.566 68.62l35.547 1.786M90.113 70.406l16.227 31.672M106.34 102.078l35.547 1.785M145.402 106.133l9.657-14.945" stroke-width="1.2" stroke="#000" stroke-miterlimit="10" fill="none"/><path d="M155.06 91.188l9.66-14.946" stroke-width="1.2" stroke="#f00" stroke-miterlimit="10" fill="none"/><path d="M138.367 101.59l9.66-14.945" stroke-width="1.2" stroke="#000" stroke-miterlimit="10" fill="none"/><path d="M148.027 86.645l9.657-14.946" stroke-width="1.2" stroke="#f00" stroke-miterlimit="10" fill="none"/><path d="M141.887 103.863L150 119.7" stroke-width="1.2" stroke="#000" stroke-miterlimit="10" fill="none"/><path d="M150 119.7l8.113 15.835" stroke-width="1.2" stroke="#00f" stroke-miterlimit="10" fill="none"/><path d="M155.203 64.97h12v18h-12zm0 0" fill="#fff"/><use xlink:href="#b" x="155.203" y="78.583" fill="#f00"/><path d="M158.113 135.535l17.774.89" stroke-width="1.2" stroke="#00f" stroke-miterlimit="10" fill="none"/><path d="M175.887 136.426l17.773.894" stroke-width="1.2" stroke="#000" stroke-miterlimit="10" fill="none"/><path d="M147.113 126.535h23v18h-23zm0 0" fill="#fff"/><g fill="#00f"><use xlink:href="#a" x="147.113" y="140.149"/><use xlink:href="#c" x="158.089" y="140.149"/></g><path d="M193.66 137.32l16.227 31.672M202.734 136.668l12.985 25.34M212.977 107.426L193.66 137.32M209.887 168.992l35.547 1.78M209.887 168.992l-19.313 29.89M245.434 170.773l19.316-29.89M240.332 163.242l15.453-23.914M264.75 140.883l-16.23-31.672M248.52 109.21l-35.543-1.784M244.547 117.395l-28.438-1.426M212.977 107.426l-16.23-31.672" stroke-width="1.2" stroke="#000" stroke-miterlimit="10" fill="none"/><path d="M130.652 35.895h26v18h-26zm0 0" fill="#fff"/><g fill="#0c0"><use xlink:href="#d" x="130.652" y="49.509"/><use xlink:href="#e" x="140.896" y="49.509"/><use xlink:href="#c" x="144.973" y="49.509"/></g></g></svg>
